public/images/bracket.svg

<svg fill="none" height="283" viewBox="0 0 57 283" width="57" xmlns="http://www.w3.org/2000/svg"><path d="m29.952 36.864v53.568c0 7.104-.48 14.112-1.44 21.024s-2.784 13.056-5.472 18.432c-2.496 5.184-6.144 8.928-10.944 11.232 4.8 2.304 8.448 6.144 10.944 11.52 2.688 5.184 4.512 11.232 5.472 18.144s1.44 13.92 1.44 21.024v53.568c0 7.68 1.344 13.536 4.032 17.568 2.88 4.032 7.488 6.048 13.824 6.048h8.352v13.248h-12.672c-8.064 0-14.88-3.168-20.448-9.504-5.376-6.336-8.064-16.608-8.064-30.816v-60.48c0-10.944-1.44-19.104-4.32-24.48-2.688-5.376-6.24-8.736-10.656-10.08v-11.52c4.416-1.536 7.968-4.896 10.656-10.08 2.88-5.376 4.32-13.536 4.32-24.48v-60.48c0-14.208 2.688-24.48 8.064-30.816 5.568-6.336 12.384-9.504 20.448-9.504h12.672v13.248h-8.352c-6.336 0-10.944 2.016-13.824 6.048-2.688 3.84-4.032 9.696-4.032 17.568z" fill="#464550"/></svg>

<svg width="57" height="283" viewBox="0 0 57 283" fill="none" xmlns="http://www.w3.org/2000/svg">
<path d="M29.952 36.864V90.432C29.952 97.536 29.472 104.544 28.512 111.456C27.552 118.368 25.728 124.512 23.04 129.888C20.544 135.072 16.896 138.816 12.096 141.12C16.896 143.424 20.544 147.264 23.04 152.64C25.728 157.824 27.552 163.872 28.512 170.784C29.472 177.696 29.952 184.704 29.952 191.808V245.376C29.952 253.056 31.296 258.912 33.984 262.944C36.864 266.976 41.472 268.992 47.808 268.992H56.16V282.24H43.488C35.424 282.24 28.608 279.072 23.04 272.736C17.664 266.4 14.976 256.128 14.976 241.92V181.44C14.976 170.496 13.536 162.336 10.656 156.96C7.968 151.584 4.416 148.224 0 146.88V135.36C4.416 133.824 7.968 130.464 10.656 125.28C13.536 119.904 14.976 111.744 14.976 100.8V40.32C14.976 26.112 17.664 15.84 23.04 9.504C28.608 3.168 35.424 0 43.488 0H56.16V13.248H47.808C41.472 13.248 36.864 15.264 33.984 19.296C31.296 23.136 29.952 28.992 29.952 36.864Z" fill="#464550"/>
</svg>
